public/flags/CSA.svg

<svg fill="none" height="53" viewBox="0 0 61 53" width="61" xmlns="http://www.w3.org/2000/svg" xmlns:xlink="http://www.w3.org/1999/xlink"><mask id="a" height="43" maskUnits="userSpaceOnUse" width="59" x="1" y="3"><rect fill="#fff" height="42.5" rx="4.24286" width="59" x="1" y="3"/></mask><rect fill="#fff" height="42.5" rx="4.24286" width="59" x="1" y="3"/><g mask="url(#a)"><path d="m1 3h59v42.5h-59z" fill="#19bfbf"/><path clip-rule="evenodd" d="m22.0715 37.0863c0-.0573.007-.1145.0208-.1701l1.384-5.5829 1.3556-5.4684c.0321-.1295.0269-.2655-.0149-.3921l-1.2489-3.7784c-.0588-.1778-.1858-.3251-.3531-.4095l-2.1595-1.0889c-.2384-.1202-.3888-.3644-.3888-.6314v-5.0656c0-.109.0252-.2165.0736-.3141l1.3312-2.6849 1.2099-2.44031c.1194-.24074.3649-.39303.6336-.39303h7.2827c.3905 0 .7071.3166.7071.70714v1.419c0 .3906.3166.7072.7072.7072h1.3952c.3906 0 .7072.3166.7072.7071v1.6908c0 .267.1503.5112.3887.6315l4.8416 2.4412c.2383.1202.3887.3645.3887.6314v2.2323c0 .109-.0252.2165-.0736.3141l-1.2478 2.5169c-.0546.1101-.137.2041-.239.2727l-3.903 2.624c-.102.0686-.1844.1626-.239.2727l-2.6428 5.3306c-.0546.1101-.137.2041-.239.2727l-3.903 2.624c-.102.0686-.1844.1626-.239.2727l-2.5313 5.1056c-.1194.2407-.3648.393-.6336.393h-1.6636c-.3906 0-.7072-.3166-.7072-.7071z" fill="#fff" fill-rule="evenodd"/></g></svg>

<svg width="61" height="53" viewBox="0 0 61 53" fill="none" xmlns="http://www.w3.org/2000/svg">
<rect x="1" y="3" width="59" height="42.5" rx="4.24286" fill="white"/>
<mask id="mask0" mask-type="alpha" maskUnits="userSpaceOnUse" x="1" y="3" width="59" height="43">
<rect x="1" y="3" width="59" height="42.5" rx="4.24286" fill="white"/>
</mask>
<g mask="url(#mask0)">
<rect x="1" y="3" width="59" height="42.5" fill="#19BFBF"/>
<path fill-rule="evenodd" clip-rule="evenodd" d="M22.0715 37.0863C22.0715 37.029 22.0785 36.9718 22.0923 36.9162L23.4763 31.3333L24.8319 25.8649C24.864 25.7354 24.8588 25.5994 24.817 25.4728L23.5681 21.6944C23.5093 21.5166 23.3823 21.3693 23.215 21.2849L21.0555 20.196C20.8171 20.0758 20.6667 19.8316 20.6667 19.5646V14.499C20.6667 14.39 20.6919 14.2825 20.7403 14.1849L22.0715 11.5L23.2814 9.05969C23.4008 8.81895 23.6463 8.66666 23.915 8.66666H31.1977C31.5882 8.66666 31.9048 8.98326 31.9048 9.3738V10.7928C31.9048 11.1834 32.2214 11.5 32.612 11.5H34.0072C34.3978 11.5 34.7144 11.8166 34.7144 12.2071V13.8979C34.7144 14.1649 34.8647 14.4091 35.1031 14.5294L39.9447 16.9706C40.183 17.0908 40.3334 17.3351 40.3334 17.602V19.8343C40.3334 19.9433 40.3082 20.0508 40.2598 20.1484L39.012 22.6653C38.9574 22.7754 38.875 22.8694 38.773 22.938L34.87 25.562C34.768 25.6306 34.6856 25.7246 34.631 25.8347L31.9882 31.1653C31.9336 31.2754 31.8512 31.3694 31.7492 31.438L27.8462 34.062C27.7442 34.1306 27.6618 34.2246 27.6072 34.3347L25.0759 39.4403C24.9565 39.681 24.7111 39.8333 24.4423 39.8333H22.7787C22.3881 39.8333 22.0715 39.5167 22.0715 39.1262V37.0863Z" fill="white"/>
</g>
</svg>
